X: 155
T: Gasp\'e Reel
M: C|
R: reel
B: NEFR #155
Z: Mary Lou Knack?
K: D
|:\
"D"f2 ef e2 d2 | AF AF B2 A2 | "A7"g2 fg f2 e2 | BA Bc B2 A2 |\
"D"f2 ef e2 d2 | AF AF B2 A2 | "A7"g2 fg f2 e2 | B2 c2 "D"d4 :|
|:\
"A7"e2 f2 g3 e | "D"f2 g2 a4 | "A7"e2 f2 g2 e2 | "Em"BA Bc "A7"B2 A2 |\
"A7"e2 f2 g3 e | "D"f2 g2 a4 | "A7"e2 f2 gf e2 | B2 c2 "D"d4 :|
